optimized/24/outline/calendar-days.svg

<svg xmlns="http://www.w3.org/2000/svg" fill="none" viewBox="0 0 24 24">
  <path stroke-linecap="round" stroke-linejoin="round" d="M6.75 3V5.25M17.25 3V5.25M3 18.75V7.5C3 6.25736 4.00736 5.25 5.25 5.25H18.75C19.9926 5.25 21 6.25736 21 7.5V18.75M3 18.75C3 19.9926 4.00736 21 5.25 21H18.75C19.9926 21 21 19.9926 21 18.75M3 18.75V11.25C3 10.0074 4.00736 9 5.25 9H18.75C19.9926 9 21 10.0074 21 11.25V18.75M12 12.75H12.0075V12.7575H12V12.75ZM12 15H12.0075V15.0075H12V15ZM12 17.25H12.0075V17.2575H12V17.25ZM9.75 15H9.7575V15.0075H9.75V15ZM9.75 17.25H9.7575V17.2575H9.75V17.25ZM7.5 15H7.5075V15.0075H7.5V15ZM7.5 17.25H7.5075V17.2575H7.5V17.25ZM14.25 12.75H14.2575V12.7575H14.25V12.75ZM14.25 15H14.2575V15.0075H14.25V15ZM14.25 17.25H14.2575V17.2575H14.25V17.25ZM16.5 12.75H16.5075V12.7575H16.5V12.75ZM16.5 15H16.5075V15.0075H16.5V15Z"/>
</svg>

<svg xmlns="http://www.w3.org/2000/svg" fill="none" viewBox="0 0 24 24" stroke-width="1.5" stroke="currentColor" aria-hidden="true">
  <path stroke-linecap="round" stroke-linejoin="round" d="M6.75 3v2.25M17.25 3v2.25M3 18.75V7.5a2.25 2.25 0 012.25-2.25h13.5A2.25 2.25 0 0121 7.5v11.25m-18 0A2.25 2.25 0 005.25 21h13.5A2.25 2.25 0 0021 18.75m-18 0v-7.5A2.25 2.25 0 015.25 9h13.5A2.25 2.25 0 0121 11.25v7.5m-9-6h.008v.008H12v-.008zM12 15h.008v.008H12V15zm0 2.25h.008v.008H12v-.008zM9.75 15h.008v.008H9.75V15zm0 2.25h.008v.008H9.75v-.008zM7.5 15h.008v.008H7.5V15zm0 2.25h.008v.008H7.5v-.008zm6.75-4.5h.008v.008h-.008v-.008zm0 2.25h.008v.008h-.008V15zm0 2.25h.008v.008h-.008v-.008zm2.25-4.5h.008v.008H16.5v-.008zm0 2.25h.008v.008H16.5V15z"/>
</svg>
